Yaru++/mimetypes/scalable/image-x-xcf.svg

<svg height="256" viewBox="0 0 67.73 67.73" width="256" xmlns="http://www.w3.org/2000/svg" xmlns:xlink="http://www.w3.org/1999/xlink"><linearGradient id="a" gradientUnits="userSpaceOnUse" x1="39.800217" x2="24.938656" y1="264.576183" y2="267.524905"><stop offset="0"/><stop offset="1" stop-opacity="0"/></linearGradient><linearGradient id="b" gradientTransform="matrix(-.11988342 0 0 -.11987999 63.186065 64.761749)" gradientUnits="userSpaceOnUse" x1="529.65515" x2="-35.310345" y1="401.58368" y2="119.09284"><stop offset="0" stop-color="#f2f2f2"/><stop offset="1" stop-color="#f9f9f9"/></linearGradient><linearGradient id="c" gradientUnits="userSpaceOnUse" x1="88" x2="488" y1="88" y2="488"><stop offset="0" stop-opacity=".588235"/><stop offset=".88" stop-opacity="0"/><stop offset="1"/></linearGradient><filter id="d" color-interpolation-filters="sRGB" height="1.087725" width="1.105998" x="-.052999" y="-.043863"><feGaussianBlur stdDeviation="8.4801079"/></filter><filter id="e" color-interpolation-filters="sRGB" height="1.021931" width="1.0265" x="-.01325" y="-.010966"><feGaussianBlur stdDeviation="2.120027"/></filter><path d="m189.84323 74c-70.59344 0-78.18921 7.250835-77.84323 77.98706v146.01294 146.01294c-.34598 70.73623 7.24979 77.98706 77.84323 77.98706h228.31354c70.59344 0 75.90613-7.27652 77.84323-77.98706v-146.01294-146.01294c0-70.737067-7.24979-77.98706-77.84323-77.98706z" filter="url(#e)" opacity=".1" transform="matrix(0 -.13228516 .13228516 0 -5.866787 74.031658)"/><path d="m189.84323 74c-70.59344 0-78.18921 7.250835-77.84323 77.98706v146.01294 146.01294c-.34598 70.73623 7.24979 77.98706 77.84323 77.98706h228.31354c70.59344 0 77.84323-7.24999 77.84323-77.98706v-146.01294-146.01294c0-70.737067-7.24979-77.98706-77.84323-77.98706z" fill="url(#c)" filter="url(#d)" opacity=".3" transform="matrix(0 .13228516 .13228516 0 -5.866787 -6.39629)"/><path d="m3.9223156 48.653645c0 9.338467.9591778 10.343274 10.3165304 10.297506h19.315344 19.315345c9.357354.04577 10.31653-.959039 10.31653-10.297506v-30.202488c0-9.3384633-.962575-10.5537543-10.31653-10.2975043h-19.315345-19.315344c-9.357464 0-10.3165304.959041-10.3165304 10.2975043z" fill="none" opacity=".2" stroke="#000" stroke-width="1.058281"/><path d="m3.922315 48.653645c0 9.338467.9591784 10.343274 10.316531 10.297506h19.315344 19.315345c9.357354.04577 10.31653-.959039 10.31653-10.297506v-30.202488c0-9.3384633-.959067-10.2975043-10.31653-10.2975043h-19.315345-19.315344c-9.3574637 0-10.316531.959041-10.316531 10.2975043z" fill="url(#b)"/><path d="m3.9225127 48.126185v.52914c0 9.338465.9587111 10.297056 10.3161753 10.297056h19.315701 19.315183c9.357463 0 10.316692-.958591 10.316692-10.297056v-.52914c0 9.338464-.959229 10.297055-10.316692 10.297055h-19.315183-19.315701c-9.3574642 0-10.3161753-.958591-10.3161753-10.297055z" opacity=".2"/><path d="m14.238688 8.1548827c-9.3573549-.04577-10.3161753.959105-10.3161753 10.2975733v.529141c0-9.3384683.9588204-10.3433423 10.3161753-10.2975743h19.315701 19.315183c9.357352-.04577 10.316692.959106 10.316692 10.2975743v-.529141c0-9.3384683-.95934-10.3433413-10.316692-10.2975733h-19.315183z" fill="#fff" opacity=".2"/><g enable-background="new" transform="matrix(.5993042 0 0 .5993042 14.799141 -122.08577)"><path d="m12.380846 240.52258s4.199679 9.08985 14.024561 8.83344c20.589272-.5419 24.199706-11.81532 24.716248-13.44185.51652-1.62648 1.306923-1.3801 1.489653.1229 6.715072 63.97564-46.6016511 36.52631-48.4951718 25.62997 10.5891558-3.25302 8.1686758-6.97326 8.1686758-6.97326z" fill="#60594c" fill-rule="evenodd"/><path d="m113.9668 74.640625a26.371084 28.367858 0 0 0 -22.789066 14.148437 23.415044 24.229482 0 0 0 -20.859375-13.222656 23.415044 24.229482 0 0 0 -23.416015 24.228516 23.415044 24.229482 0 0 0 23.416015 24.230468 23.415044 24.229482 0 0 0 19.210938-10.39453 26.371084 28.367858 0 0 0 24.437503 17.74609 26.371084 28.367858 0 0 0 26.37109-28.36718 26.371084 28.367858 0 0 0 -26.37109-28.369145z" fill="#fff" transform="matrix(.26458333 0 0 .26458333 0 229.26666)"/><ellipse cx="-97.563156" cy="242.37206" rx="7.045615" ry="8.726956" transform="matrix(.91323687 -.40742904 .40742904 .91323687 0 0)"/><ellipse cx="19.718147" cy="256.15598" fill="#474747" rx="2.091165" ry="2.203373"/><ellipse cx="31.755095" cy="256.97205" fill="#474747" rx="2.417591" ry="2.28498"/><path d="m22.751694 266.76028c8.992654 1.79863 13.572173.13113 16.252371-1.93864-.707696-.91409-1.916671-1.91665-1.916671-1.91665s3.140362.87264 4.24616 2.30001c1.102637 1.42324.409436 2.30016.120844 4.12124-.642413-1.59946-1.841501-2.1993-2.003838-2.83478-2.410358 3.33197-8.415566 3.19357-16.698866.26882z" fill="url(#a)" fill-rule="evenodd"/><g transform="matrix(-.15326305 -.52024985 .52024985 -.15326305 34.731331 266.25769)"><path d="m-23.364209 23.568336 3.710098 3.469175c8.346983-6.380847 17.0940772-20.0993736 17.0940772-20.0993736 1.97631487-2.2424123-.1169199-3.7504826-2.1649066-2.3979188 0 0-12.9703626 10.1148664-18.6392686 19.0281174z" fill="#d17716" stroke="#d17716" stroke-linecap="round" stroke-width="2.460453"/><path d="m-30.449715 32.813894 2.24632 1.93382 8.492766-7.367031.275061-.705828 1.094405-.01782c-.4375-1.5625-2.941514-4.383455-4.816514-4.383455l.08202 1.090075-.669991.380027z" fill="#bdbdbd" stroke="#bdbdbd" stroke-linecap="round" stroke-width="2.460453"/><path d="m-45.341208 42.769835c10.443958 0 18.370039 1.24373 19.870605-6.354738 1.209249-6.123314-7.210534-9.057368-11.38287-3.590861-4.019277 5.265971-8.487735 9.945599-8.487735 9.945599z" fill="#4b4b4b"/></g></g><g fill="#fff"><path d="m3.922315 33.553829h59.26375v15.101176c0 9.338465-.962123 10.054627-10.316435 10.297574h-19.31544-19.315441c-9.3574643 0-10.316434-.959109-10.316434-10.297574z" opacity=".1"/><path d="m33.55419 8.1550797h19.31544c9.357355-.04577 10.316435.959109 10.316435 10.2975753v30.20235c0 9.338465-.962123 10.054627-10.316435 10.297574h-19.31544z" opacity=".1"/><path d="m47.311846 58.580657 15.874219-15.874219v5.948567c-.01384 8.994282-1.006076 9.925652-10.099733 9.925652z" opacity=".1"/></g></svg>

<?xml version="1.0" encoding="UTF-8" standalone="no"?>
<svg
   xmlns:dc="http://purl.org/dc/elements/1.1/"
   xmlns:cc="http://creativecommons.org/ns#"
   xmlns:rdf="http://www.w3.org/1999/02/22-rdf-syntax-ns#"
   xmlns:svg="http://www.w3.org/2000/svg"
   xmlns="http://www.w3.org/2000/svg"
   xmlns:xlink="http://www.w3.org/1999/xlink"
   xmlns:sodipodi="http://sodipodi.sourceforge.net/DTD/sodipodi-0.dtd"
   xmlns:inkscape="http://www.inkscape.org/namespaces/inkscape"
   height="256"
   viewBox="0 0 67.73 67.73"
   width="256"
   version="1.1"
   id="svg64"
   sodipodi:docname="image-x-xcf.svg"
   inkscape:version="0.92.5 (2060ec1f9f, 2020-04-08)">
  <metadata
     id="metadata70">
    <rdf:RDF>
      <cc:Work
         rdf:about="">
        <dc:format>image/svg+xml</dc:format>
        <dc:type
           rdf:resource="http://purl.org/dc/dcmitype/StillImage" />
      </cc:Work>
    </rdf:RDF>
  </metadata>
  <defs
     id="defs68">
    <linearGradient
       x1="32.350136"
       y1="28.083355"
       x2="21.213203"
       y2="30.293064"
       id="linearGradient4351-7"
       xlink:href="#linearGradient8534"
       gradientUnits="userSpaceOnUse"
       gradientTransform="matrix(1.3344393,0,0,1.3344393,-3.3690755,227.10065)" />
    <linearGradient
       id="linearGradient8534">
      <stop
         style="stop-color:black;stop-opacity:1"
         offset="0"
         id="stop8536" />
      <stop
         style="stop-color:black;stop-opacity:0"
         offset="1"
         id="stop8538" />
    </linearGradient>
    <linearGradient
       gradientUnits="userSpaceOnUse"
       y2="119.09284"
       x2="-35.310345"
       y1="401.58368"
       x1="529.65515"
       id="linearGradient4226"
       xlink:href="#linearGradient4338"
       inkscape:collect="always"
       gradientTransform="matrix(-0.11988342,0,0,-0.11987999,63.186065,64.761749)" />
    <linearGradient
       inkscape:collect="always"
       id="linearGradient4338">
      <stop
         style="stop-color:#f2f2f2;stop-opacity:1"
         offset="0"
         id="stop4340" />
      <stop
         style="stop-color:#f9f9f9;stop-opacity:1"
         offset="1"
         id="stop4342" />
    </linearGradient>
    <linearGradient
       inkscape:collect="always"
       xlink:href="#linearGradient4360"
       id="linearGradient4358"
       x1="88"
       y1="88"
       x2="488"
       y2="488"
       gradientUnits="userSpaceOnUse" />
    <linearGradient
       id="linearGradient4360"
       inkscape:collect="always">
      <stop
         id="stop4362"
         offset="0"
         style="stop-color:#000000;stop-opacity:0.58823532" />
      <stop
         style="stop-color:#000000;stop-opacity:0"
         offset="0.88"
         id="stop4364" />
      <stop
         id="stop4366"
         offset="1"
         style="stop-color:#000000;stop-opacity:1" />
    </linearGradient>
    <filter
       inkscape:collect="always"
       style="color-interpolation-filters:sRGB"
       id="filter4380"
       x="-0.052999184"
       width="1.1059984"
       y="-0.043862626"
       height="1.0877253">
      <feGaussianBlur
         inkscape:collect="always"
         stdDeviation="8.4801079"
         id="feGaussianBlur4382" />
    </filter>
    <filter
       inkscape:collect="always"
       style="color-interpolation-filters:sRGB"
       id="filter4346"
       x="-0.013249796"
       width="1.0264996"
       y="-0.010965657"
       height="1.0219313">
      <feGaussianBlur
         inkscape:collect="always"
         stdDeviation="2.120027"
         id="feGaussianBlur4348" />
    </filter>
  </defs>
  <sodipodi:namedview
     pagecolor="#ffffff"
     bordercolor="#666666"
     borderopacity="1"
     objecttolerance="10"
     gridtolerance="10"
     guidetolerance="10"
     inkscape:pageopacity="0"
     inkscape:pageshadow="2"
     inkscape:window-width="773"
     inkscape:window-height="480"
     id="namedview66"
     showgrid="false"
     inkscape:zoom="0.921875"
     inkscape:cx="128"
     inkscape:cy="128"
     inkscape:window-x="0"
     inkscape:window-y="27"
     inkscape:window-maximized="0"
     inkscape:current-layer="svg64" />
  <linearGradient
     id="a"
     gradientTransform="matrix(0 -.11988932 .11988589 0 .36278 292.5483)"
     gradientUnits="userSpaceOnUse"
     x1="529.655"
     x2="-35.31"
     y1="401.584"
     y2="119.093">
    <stop
       offset="0"
       stop-color="#f2f2f2"
       id="stop2" />
    <stop
       offset="1"
       stop-color="#f9f9f9"
       id="stop4" />
  </linearGradient>
  <linearGradient
     id="b"
     gradientUnits="userSpaceOnUse"
     x1="88"
     x2="488"
     y1="88"
     y2="488">
    <stop
       offset="0"
       stop-opacity=".588235"
       id="stop7" />
    <stop
       offset=".88"
       stop-opacity="0"
       id="stop9" />
    <stop
       offset="1"
       id="stop11" />
  </linearGradient>
  <filter
     id="c"
     color-interpolation-filters="sRGB"
     height="1.022"
     width="1.026"
     x="-.01"
     y="-.01">
    <feGaussianBlur
       stdDeviation="2.12"
       id="feGaussianBlur14" />
  </filter>
  <linearGradient
     id="d"
     gradientUnits="userSpaceOnUse"
     x1="39.800035355"
     x2="24.9383848709"
     y1="264.5757088619"
     y2="267.5248197149">
    <stop
       offset="0"
       id="stop17" />
    <stop
       offset="1"
       stop-opacity="0"
       id="stop19" />
  </linearGradient>
  <path
     style="color:#000000;display:inline;overflow:visible;visibility:visible;opacity:0.1;fill:#000000;fill-opacity:1;fill-rule:nonzero;stroke:none;stroke-width:2;marker:none;filter:url(#filter4346);enable-background:accumulate"
     d="M 189.84323,74 C 119.24979,74 111.65402,81.250835 112,151.98706 V 298 444.01294 C 111.65402,514.74917 119.24979,522 189.84323,522 H 418.15677 C 488.75021,522 494.0629,514.72348 496,444.01294 V 298 151.98706 C 496,81.249993 488.75021,74 418.15677,74 Z"
     id="rect4158-9"
     inkscape:connector-curvature="0"
     sodipodi:nodetypes="scccssscsss"
     transform="matrix(0,-0.13228516,0.13228516,0,-5.8667865,74.031658)" />
  <path
     sodipodi:nodetypes="scccssscsss"
     inkscape:connector-curvature="0"
     id="path4350"
     d="M 189.84323,74 C 119.24979,74 111.65402,81.250835 112,151.98706 V 298 444.01294 C 111.65402,514.74917 119.24979,522 189.84323,522 H 418.15677 C 488.75021,522 496,514.75001 496,444.01294 V 298 151.98706 C 496,81.249993 488.75021,74 418.15677,74 Z"
     style="color:#000000;display:inline;overflow:visible;visibility:visible;opacity:0.3;fill:url(#linearGradient4358);fill-opacity:1;fill-rule:nonzero;stroke:none;stroke-width:2;marker:none;filter:url(#filter4380);enable-background:accumulate"
     transform="matrix(0,0.13228516,0.13228516,0,-5.8667865,-6.3962895)" />
  <path
     sodipodi:nodetypes="scccssscsss"
     inkscape:connector-curvature="0"
     id="path1163"
     d="m 3.9223156,48.653645 c 0,9.338467 0.9591778,10.343274 10.3165304,10.297506 H 33.55419 52.869535 c 9.357354,0.04577 10.31653,-0.959039 10.31653,-10.297506 V 18.451157 c 0,-9.3384633 -0.962575,-10.5537543 -10.31653,-10.2975043 H 33.55419 14.238846 c -9.357464,0 -10.3165304,0.959041 -10.3165304,10.2975043 z"
     style="color:#000000;display:inline;overflow:visible;visibility:visible;opacity:0.2;fill:none;fill-opacity:1;fill-rule:nonzero;stroke:#000000;stroke-width:1.0582813;stroke-miterlimit:4;stroke-dasharray:none;stroke-opacity:1;marker:none;enable-background:accumulate" />
  <path
     style="color:#000000;display:inline;overflow:visible;visibility:visible;fill:url(#linearGradient4226);fill-opacity:1;fill-rule:nonzero;stroke:none;stroke-width:0.26457033;marker:none;enable-background:accumulate"
     d="m 3.922315,48.653645 c 0,9.338467 0.9591784,10.343274 10.316531,10.297506 H 33.55419 52.869535 c 9.357354,0.04577 10.31653,-0.959039 10.31653,-10.297506 V 18.451157 c 0,-9.3384633 -0.959067,-10.2975043 -10.31653,-10.2975043 H 33.55419 14.238846 c -9.3574637,0 -10.316531,0.959041 -10.316531,10.2975043 z"
     id="rect4158"
     inkscape:connector-curvature="0"
     sodipodi:nodetypes="scccssscsss" />
  <path
     style="color:#000000;display:inline;overflow:visible;visibility:visible;opacity:0.2;fill:#000000;fill-opacity:1;fill-rule:nonzero;stroke:none;stroke-width:0.26457033;marker:none;enable-background:accumulate"
     d="m 3.9225127,48.126185 v 0.52914 c 0,9.338465 0.9587111,10.297056 10.3161753,10.297056 h 19.315701 19.315183 c 9.357463,0 10.316692,-0.958591 10.316692,-10.297056 v -0.52914 c 0,9.338464 -0.959229,10.297055 -10.316692,10.297055 H 33.554389 14.238688 c -9.3574642,0 -10.3161753,-0.958591 -10.3161753,-10.297055 z"
     id="path1056"
     inkscape:connector-curvature="0"
     sodipodi:nodetypes="csscsscscsc" />
  <path
     style="color:#000000;display:inline;overflow:visible;visibility:visible;opacity:0.2;fill:#ffffff;fill-opacity:1;fill-rule:nonzero;stroke:none;stroke-width:0.26457033;marker:none;enable-background:accumulate"
     d="M 14.238688,8.1548827 C 4.8813331,8.1091127 3.9225127,9.1139877 3.9225127,18.452456 v 0.529141 c 0,-9.3384683 0.9588204,-10.3433423 10.3161753,-10.2975743 h 19.315701 19.315183 c 9.357352,-0.04577 10.316692,0.959106 10.316692,10.2975743 v -0.529141 c 0,-9.3384683 -0.95934,-10.3433413 -10.316692,-10.2975733 H 33.554389 Z"
     id="path923"
     inkscape:connector-curvature="0" />
  <g
     style="display:inline;enable-background:new"
     transform="matrix(0.5993042,0,0,0.5993042,14.799141,-122.08577)"
     id="g1164-5">
    <path
       sodipodi:nodetypes="ccccccc"
       inkscape:connector-curvature="0"
       id="path4323-6"
       style="color:#000000;display:inline;overflow:visible;visibility:visible;fill:#60594c;fill-opacity:1;fill-rule:evenodd;stroke:none;stroke-width:1.49680126;stroke-linecap:butt;stroke-linejoin:miter;stroke-miterlimit:10;stroke-dasharray:none;stroke-dashoffset:0;stroke-opacity:1;marker:none;marker-start:none;marker-mid:none;marker-end:none"
       d="m 12.380846,240.52258 c 0,0 4.199679,9.08985 14.024561,8.83344 20.589272,-0.5419 24.199706,-11.81532 24.716248,-13.44185 0.51652,-1.62648 1.306923,-1.3801 1.489653,0.1229 6.715072,63.97564 -46.6016511,36.52631 -48.4951718,25.62997 10.5891558,-3.25302 8.1686758,-6.97326 8.1686758,-6.97326 z" />
    <path
       inkscape:connector-curvature="0"
       transform="matrix(0.26458333,0,0,0.26458333,0,229.26666)"
       id="path992-2"
       d="M 113.9668,74.640625 A 26.371084,28.367858 0 0 0 91.177734,88.789062 23.415044,24.229482 0 0 0 70.318359,75.566406 23.415044,24.229482 0 0 0 46.902344,99.794922 23.415044,24.229482 0 0 0 70.318359,124.02539 23.415044,24.229482 0 0 0 89.529297,113.63086 26.371084,28.367858 0 0 0 113.9668,131.37695 26.371084,28.367858 0 0 0 140.33789,103.00977 26.371084,28.367858 0 0 0 113.9668,74.640625 Z"
       style="opacity:1;fill:#ffffff;fill-opacity:1;stroke:none;stroke-width:2.64055514;stroke-linecap:round;stroke-linejoin:round;stroke-miterlimit:4;stroke-dasharray:none;stroke-opacity:1" />
    <ellipse
       transform="rotate(-24.043433)"
       ry="8.7269564"
       rx="7.0456152"
       cy="242.37206"
       cx="-97.563156"
       id="path990-9"
       style="opacity:1;fill:#000000;fill-opacity:1;stroke:none;stroke-width:0.51916379;stroke-linecap:round;stroke-linejoin:round;stroke-miterlimit:4;stroke-dasharray:none;stroke-opacity:1" />
    <ellipse
       ry="2.2033732"
       rx="2.0911648"
       cy="256.15598"
       cx="19.718147"
       id="path997-1"
       style="opacity:1;fill:#474747;fill-opacity:1;stroke:none;stroke-width:0.49427614;stroke-linecap:round;stroke-linejoin:round;stroke-miterlimit:4;stroke-dasharray:none;stroke-opacity:1" />
    <ellipse
       style="opacity:1;fill:#474747;fill-opacity:1;stroke:none;stroke-width:0.54120773;stroke-linecap:round;stroke-linejoin:round;stroke-miterlimit:4;stroke-dasharray:none;stroke-opacity:1"
       id="ellipse999-2"
       cx="31.755095"
       cy="256.97205"
       rx="2.4175906"
       ry="2.2849796" />
    <path
       inkscape:connector-curvature="0"
       id="path6480-7"
       style="color:#000000;display:inline;overflow:visible;visibility:visible;fill:url(#linearGradient4351-7);fill-opacity:1;fill-rule:evenodd;stroke:none;stroke-width:1.33443892;stroke-linecap:butt;stroke-linejoin:miter;stroke-miterlimit:10;stroke-dasharray:none;stroke-dashoffset:0;stroke-opacity:1;marker:none;marker-start:none;marker-mid:none;marker-end:none"
       d="m 22.751694,266.76028 c 8.992654,1.79863 13.572173,0.13113 16.252371,-1.93864 -0.707696,-0.91409 -1.916671,-1.91665 -1.916671,-1.91665 0,0 3.140362,0.87264 4.24616,2.30001 1.102637,1.42324 0.409436,2.30016 0.120844,4.12124 -0.642413,-1.59946 -1.841501,-2.1993 -2.003838,-2.83478 -2.410358,3.33197 -8.415566,3.19357 -16.698866,0.26882 z" />
    <g
       id="g8463-0"
       transform="matrix(-0.15326305,-0.52024985,0.52024985,-0.15326305,34.731331,266.25769)">
      <path
         inkscape:connector-curvature="0"
         id="path6937-9"
         style="color:#000000;display:inline;overflow:visible;visibility:visible;opacity:1;fill:#d17716;fill-opacity:1;fill-rule:nonzero;stroke:#d17716;stroke-width:2.46045303;stroke-linecap:round;stroke-linejoin:miter;stroke-miterlimit:4;stroke-dasharray:none;stroke-dashoffset:0;stroke-opacity:1;marker:none;marker-start:none;marker-mid:none;marker-end:none"
         d="m -23.364209,23.568336 3.710098,3.469175 C -11.307128,20.656664 -2.5600338,6.9381374 -2.5600338,6.9381374 -0.58371893,4.6957251 -2.6769537,3.1876548 -4.7249404,4.5402186 c 0,0 -12.9703626,10.1148664 -18.6392686,19.0281174 z" />
      <path
         inkscape:connector-curvature="0"
         id="path6935"
         style="color:#000000;display:inline;overflow:visible;visibility:visible;opacity:1;fill:#bdbdbd;fill-opacity:1;fill-rule:nonzero;stroke:#bdbdbd;stroke-width:2.46045303;stroke-linecap:round;stroke-linejoin:miter;stroke-miterlimit:4;stroke-dasharray:none;stroke-dashoffset:0;stroke-opacity:1;marker:none;marker-start:none;marker-mid:none;marker-end:none"
         d="m -30.449715,32.813894 2.24632,1.93382 8.492766,-7.367031 0.275061,-0.705828 1.094405,-0.01782 c -0.4375,-1.5625 -2.941514,-4.383455 -4.816514,-4.383455 l 0.08202,1.090075 -0.669991,0.380027 z" />
      <path
         inkscape:connector-curvature="0"
         id="path6933-3"
         style="color:#000000;display:inline;overflow:visible;visibility:visible;opacity:1;fill:#4b4b4b;fill-opacity:1;fill-rule:nonzero;stroke:none;stroke-width:0.2;stroke-linecap:round;stroke-linejoin:miter;stroke-miterlimit:4;stroke-dasharray:none;stroke-dashoffset:0;stroke-opacity:1;marker:none;marker-start:none;marker-mid:none;marker-end:none"
         d="m -45.341208,42.769835 c 10.443958,0 18.370039,1.24373 19.870605,-6.354738 1.209249,-6.123314 -7.210534,-9.057368 -11.38287,-3.590861 -4.019277,5.265971 -8.487735,9.945599 -8.487735,9.945599 z" />
    </g>
  </g>
  <path
     style="color:#000000;display:inline;overflow:visible;visibility:visible;opacity:0.1;fill:#ffffff;fill-opacity:1;fill-rule:nonzero;stroke:none;stroke-width:0.26457033;marker:none;enable-background:accumulate"
     d="m 3.922315,33.553829 h 59.26375 v 15.101176 c 0,9.338465 -0.962123,10.054627 -10.316435,10.297574 H 33.55419 14.238749 c -9.3574643,0 -10.316434,-0.959109 -10.316434,-10.297574 z"
     id="path4231"
     inkscape:connector-curvature="0"
     sodipodi:nodetypes="ccsscssc" />
  <path
     inkscape:connector-curvature="0"
     style="color:#000000;display:inline;overflow:visible;visibility:visible;opacity:0.1;fill:#ffffff;fill-opacity:1;fill-rule:nonzero;stroke:none;stroke-width:0.26457033;marker:none;enable-background:accumulate"
     d="m 33.55419,8.1550797 h 19.31544 c 9.357355,-0.04577 10.316435,0.959109 10.316435,10.2975753 v 30.20235 c 0,9.338465 -0.962123,10.054627 -10.316435,10.297574 H 33.55419 Z"
     id="path4255"
     sodipodi:nodetypes="ccssscc" />
  <path
     style="color:#000000;display:inline;overflow:visible;visibility:visible;opacity:0.1;fill:#ffffff;fill-opacity:1;fill-rule:nonzero;stroke:none;stroke-width:2.11656237;stroke-linecap:butt;stroke-linejoin:miter;stroke-miterlimit:4;stroke-dasharray:none;stroke-dashoffset:0;stroke-opacity:1;marker:none;enable-background:accumulate"
     d="M 47.311846,58.580657 63.186065,42.706438 v 5.948567 c -0.01384,8.994282 -1.006076,9.925652 -10.099733,9.925652 z"
     id="path4254"
     inkscape:connector-curvature="0"
     sodipodi:nodetypes="cccsc" />
</svg>
